X: 577
M: 12/8
L: 1/8
K: G
V: 1
|:\
|:\
{a}Tg>fg dgb- bgd bgd | {g}Tf>ef dfa- afd afd |\
{a}Tg>fg dgb- bgd bgd | {g}Tf>ef agf gdB G3 |]
V: 2 clef=bass middle=d
|:\
g3 g3 g3 g3 | d3 d3 d3 d3 | g3 g3 g3 g3 | c'3 d'3 g3 G3 :|
g3 g3 g3 g3 | d3 d3 d3 d3 | g3 g3 g3 g3 | d'3 d3 g3 G3 |]

